X: 2
T: The Cottagers
R: reel, march
M: 2/4
L: 1/16
Z: 2010 John Chambers <jc:trillian.mit.edu>
B: 19th century tune book collected by W.A. Cocks.
F: http://www.asaplive.com/archive/browse_by_collection.asp
N: The asaplive.com web site is complex, and links to its files don't usually work.
K: Bb
d2d2 e2e2 | f2dB c2AF | B2B2 c2c2 | d2de c4 |\
d2d2 e2e2 | f2dB c2AF | B2B2 c2d2 | e2cA B4 :|
|: d2f2 f2gf | b2f2 f2gf | d2f2 f2f2 | gfed c4 |\
d2f2 f2gf | b2f2 f2gf | bagf edcB | ABcd B4 :|
